merged-packages/tron-wallet-snap/images/icon.svg

<svg xmlns="http://www.w3.org/2000/svg" xml:space="preserve" style="enable-background:new 0 0 2680.2 2915.7" viewBox="0 0 2680.2 2915.7"><path d="M1929.1 757.7 332 463.8l840.5 2114.9 1171.1-1426.8-414.5-394.2zm-25.7 129.5 244.3 232.2-668.2 121 423.9-353.2zm-569 329L630.1 632.1l1151.1 211.8-446.8 372.3zm-50.2 103.3-114.8 949.4L550.2 710.7l734 608.8zm106.3 50.4 739.9-134-848.7 1034 108.8-900z" style="fill:#eb0029"/></svg>

<?xml version="1.0" encoding="utf-8"?>
<!-- Generator: Adobe Illustrator 21.0.0, SVG Export Plug-In . SVG Version: 6.00 Build 0)  -->
<svg version="1.1" id="图层_1" xmlns="http://www.w3.org/2000/svg" xmlns:xlink="http://www.w3.org/1999/xlink" x="0px" y="0px"
	 viewBox="0 0 2680.2 2915.7" style="enable-background:new 0 0 2680.2 2915.7;" xml:space="preserve">
<style type="text/css">
	.st0{fill:#EB0029;}
</style>
<path class="st0" d="M1929.1,757.7L332,463.8l840.5,2114.9l1171.1-1426.8L1929.1,757.7z M1903.4,887.2l244.3,232.2l-668.2,121
	L1903.4,887.2z M1334.4,1216.2L630.1,632.1l1151.1,211.8L1334.4,1216.2z M1284.2,1319.5l-114.8,949.4L550.2,710.7L1284.2,1319.5z
	 M1390.5,1369.9l739.9-134l-848.7,1034L1390.5,1369.9z"/>
</svg>
